!!!!SEGMENT: pl-wtm--r-2571_hertz-michal--syrena-entree-des-pacheurs.krn
!!!cenid: 18xx:3123
!!!COM: Hertz, Michał
!!!COM-rismid: pe41023359
!!!CDT: 1844/09/28-~1918
!!!CNT: Polish
!!!OTL: Syrena
!!!PDT:
!!!AGN:
!!!SMS-siglum: PL-Wtm
!!!SMS-shelfmark: R 2571
!!!SMS-shelfwork: W
!!!SMS-variant:
!!!SMS-altvar:
!!!NIFC-rismid: 1001086084
!!!URL-scan: http://repozytorium.nifc.pl/skany/pl-wtm-nut--r2571
!!!ONB-nifc:
!!!OMD: Allegro mod.
!!!key: D
**kern	**kern	**dynam
*part1	*part1	*part1
*staff2	*staff1	*
*>[A,B,B,C]	*>[A,B,B,C]	*>[A,B,B,C]
*>A	*>A	*>A
*I"[Piano]	*I"[Piano]	*
*Ipiano	*Ipiano	*
*ICklav	*ICklav	*
*clefF4	*clefG2	*
*k[f#c#]	*k[f#c#]	*
*D:	*D:	*
*M2/2	*M2/2	*
*met(c|)	*met(c|)	*
=1	=1	=1
*	*^	*
*	*2\right	*	*
8D 8DD\	4r	4ryy	p
8r	.	.	.
!	!LO:TUP:a:problem=klamra łukowa	!	!
8D 8DD\	(<12d/L	(2.F#\	.
.	12e/	.	.
8r	.	.	.
.	12f#/J)	.	.
8D 8DD\	4A/	.	.
8r	.	.	.
!	!LO:TUP:a:problem=klamra łukowa	!	!
8D 8DD\	(<12A/L	.	.
.	12c#/	.	.
8r	.	.	.
.	12d/J)	.	.
=2	=2	=2	=2
*^	*	*	*
8D 8DD\	2.BB/	4G/	2G\)	.
8r	.	.	.	.
8D 8DD\	.	4r	.	.
8r	.	.	.	.
8D 8DD\	.	2r	2ryy	.
8r	.	.	.	.
8D 8BB-X 8DD\	4ryy	.	.	.
8r	.	.	.	.
*v	*v	*	*	*
=3	=3	=3	=3
8D 8AA 8DD\	4r	8F#\	.
8r	.	8r	.
*	*Xtuplet	*	*
8D 8DD\	(<12d/L	2.F#\	.
.	12e/	.	.
8r	.	.	.
.	12f#/J)	.	.
8D 8DD\	4A/	.	.
8r	.	.	.
8D 8DD\	(<12B/L	.	.
.	12c#/	.	.
8r	.	.	.
.	12d/J)	.	.
=4	=4	=4	=4
*^	*	*	*
8D 8DD\	2.BB\	4G/	1G	.
8r	.	.	.	.
8D 8DD\	.	4r	.	.
8r	.	.	.	.
8D 8DD\	.	2r	.	.
8r	.	.	.	.
8D 8BB-X 8DD\	4ryy	.	.	.
!LO:TX:t=P:problem=brak pauzy 8r	!	!	!	!
8ryy	.	.	.	.
*	*	*v	*v	*
!!LO:LB:g=original
=5	=5	=5	=5
(1A [<1F#	(>8DL 8AA 8DD\	4r	.
.	8EE-X\J	.	.
.	8DD\)	(12d/L	.
.	.	12e/	.
.	8r	.	.
.	.	12f#/J)	.
*	*rep	*	*
.	(>8DL 8AA 8DD\	4A/	.
.	8EE-\J	.	.
!	!	!LO:TX:b:Bi:t=po-co a po-co cre-scen-do:problem=dynamics with extention lines	!LO:HP:t=po-co a po-co cre-scen-do
.	8DD\)	(12d/L	<
.	.	12e/	.
.	8r	.	.
.	.	12f#/J)	.
*	*Xrep	*	*
=6	=6	=6	=6
*	*^	*	*
2A#X 2F#/])	4D/	(8DD\L	4A#X/	.
.	.	8EE-X\J	.	.
.	8D/	8DD\)	(12d/L	.
.	.	.	12e/	.
.	8D/	8rCC	.	.
.	.	.	12f#/J)	.
*	*	*rep	*	*
2B 2F#/	8D/	(8DD\L	4B/	.
.	8ryy	8EE-\J	.	.
.	4ryy	8DD\)	4r	.
.	.	8r	.	.
*	*	*Xrep	*	*
*	*v	*v	*	*
=7	=7	=7	=7
1B [1G	(>8DD\L	4r	.
.	8EE-X\J	.	.
.	8DD\)	(12e/L	.
.	.	12f#/	.
.	8r	.	.
.	.	12g/J)	.
*	*rep	*	*
.	(>8DD\L	4B/	.
.	8EE-\J	.	.
.	8DD\)	(12e/L	.
.	.	12f#/	.
.	8r	.	.
.	.	12g/J)	.
*	*Xrep	*	*
=8	=8	=8	=8
*	*^	*	*
2cn/	1G] 1D	(8DD\L	4cn/	.
.	.	8EE-X\J	.	.
.	.	8DD\)	(12e/L	.
.	.	.	12f#/	.
.	.	8r	.	.
.	.	.	12g/J)	.
*	*	*rep	*	*
!LO:N:xstem	!	!	!	!
2c#X/	.	(8DD\L	4c#X/	.
.	.	8EE-\J	.	.
.	.	8DD\)	4r	.
.	.	8r	.	.
*	*	*Xrep	*	*
*	*v	*v	*	*
=9	=9	=9	=9
*	*	*^	*
4d 4F#/	4D 4DD\	4r	2r	.
4C# 4CC#/	4CC#\	(12ff#\L	.	.
.	.	12ee\	.	.
.	.	12dd\J)	.	.
*2\right	*	*	*	*
[>2cn [<2Cn/	2CCn\	4aa^\	2a\	.
.	.	(12ff#\L	.	.
.	.	12ee\	.	.
.	.	12dd\J)	.	.
*v	*v	*	*	*
!!LO:LB:g=original
=10	=10	=10	=10
2.c] 2.C\]	4a/	2.a\	.
!	!LO:TUP:a:problem=klamra łukowa 	!	!
.	12ff#\L	.	.
.	12ee\	.	.
.	12dd\J	.	.
.	4aa\	.	.
4B 4BB\	4bb 4dd#X 4a\	4ryy	.
=11	=11	=11	=11
4e 4E'\	4ee 4g#X\	4ryy	.
!	!LO:TUP:a:problem=klamra łukowa 	!	!
4d#X 4D#X'\	12gg#X\L	4r	.
.	12ff#\	.	.
.	12ee\J	.	.
[2dn [2Dn\	4bb\	2b\	.
.	12gg#\L	.	.
.	12ff#\	.	.
.	12ee\J	.	.
=12	=12	=12	=12
2.d] 2.D\]	4b/	2.b\	.
.	12gg#X\L	.	.
.	12ff#\	.	.
.	12ee\J	.	.
.	4bb\	.	.
4c# 4C#\	4ccc# 4ee#X 4b 4e#X@ 4G@\	4ryy	.
=13	=13	=13	=13
4f# 4F#\	4a 4ff#\	4ryy	.
4e 4E\	12aa\L	4r	.
.	12gg#X\	.	.
.	12ff#\J	.	.
4d#X 4D#X\	[2ccc# [2cc#\	2ryy	.
4e 4E\	.	.	.
=14	=14	=14	=14
4f# 4F#\	4ccc#\]	2.cc#\]	.
4e 4E\	12aa\L	.	.
.	12gg#X\	.	.
.	12ff#\J	.	.
4d#X 4D#X\	4.aa/	.	.
4dn 4Dn\	.	4ccn\	.
.	8bb/	.	.
!!LO:LB:g=original
=15	=15	=15	=15
4g 4G\	4ggn 4b\	4ryy	.
4f# 4F#\	12bb/L	4r	.
.	12aa/	.	.
.	12gg/J	.	.
!	!	!LO:N:xstem	!
4fn 4Fn\	[2ddd/	2dd\	.
4f#X 4F#X\	.	.	.
=16	=16	=16	=16
4g 4G\	4ddd/]	2.dd\	.
4f# 4F#\	12bb/L	.	.
.	12aa/	.	[
.	12gg/J	.	.
4fn 4Fn\	4.bb/	.	.
4f#X 4F#X\	.	4gg#X 4dd\	.
.	8ccc#/	.	.
=17	=17	=17	=17
*^	*	*	*
4A\	[>1a [1e [1c# [1A	4aa 4cc#\	4ryy	.
4G#X\	.	12ccc#\L	4r	.
.	.	12bb\	.	.
.	.	12aa\J	.	.
4Gn\	.	[2eee 2ee\	2ryy	.
4G#X\	.	.	.	.
=18	=18	=18	=18	=18
*rep	*rep	*	*	*
4A\	1a] 1e] 1c#] 1A]	4eee\]	1r	.
!	!	!LO:TX:b:Bi:t=cre-scen-do:problem=dynamics with extention lines	!	!LO:HP:t=cre-scen-do
4G#X\	.	12ccc#\L	.	<
.	.	12bb\	.	.
.	.	12aa\J	.	.
4Gn\	.	[2eee\	.	.
4G#X\	.	.	.	.
*Xrep	*Xrep	*	*	*
*	*	*v	*v	*
=19	=19	=19	=19
4a 4A\	2ryy	4eee] 4aa 4ee\	.
4r	.	(12ccc#\L	.
.	.	12bb\	.
.	.	12aa\J	.
[>2A [<2AA\	2g 2e 2B/	4bb 4ee 4b\)	.
.	.	(12gg\L	.
.	.	12ff#\	.
.	.	12ee\J	.
*v	*v	*	*
=20	=20	=20
1A_ 1AA_	4gg 4b 4g\)	.
.	(12ee\L	.
.	12dd\	.
.	12cc#\J	.
.	4ee 4g 4e\)	.
.	(12cc#\L	.
.	12b\	.
.	12a\J	.
!!LO:LB:g=original
=21	=21	=21
*^	*	*
!	!LO:N:xstem	!	!
4A] 4AA\]	2g 2e 2c#@ 2B 2A@ 2G@\	4gg 4b 4g\)	.
4r	.	(12ee\L	.
.	.	12dd\	.
.	.	12cc#\J	.
2e 2B 2A [>2AA [2AAA/	2ryy	4ee 4e\)	.
.	.	(12cc#\L	.
.	.	12b\	.
.	.	12a\J	.
*v	*v	*	*
=22	=22	=22
1AA] 1AAA]	4b 4B\)	.
.	(12g\L	.
.	12f#\	.
.	12e\J	.
.	4g 4G\)	.
.	(12e\L	.
.	12d\	.
.	12c#\J)	.
=23	=23	=23
*	*^	*
*tremolo	*	*	*
(32AAA/LLL	4c#/	2B\	[ f
32AA/	.	.	.
32AAA/	.	.	.
32AA/	.	.	.
32AAA/	.	.	.
32AA/	.	.	.
32AAA/	.	.	.
32AA/	.	.	.
32AAA/	(<12c#/L	.	.
32AA/	.	.	.
32AAA/	.	.	.
.	12B/	.	.
32AA/	.	.	.
32AAA/	.	.	.
32AA/	.	.	.
.	12A/J	.	.
32AAA/	.	.	.
32AA/JJJ)	.	.	.
*rep	*	*	*
(32AAA/LLL	4d/)	[2F#\	.
32AA/	.	.	.
32AAA/	.	.	.
32AA/	.	.	.
32AAA/	.	.	.
32AA/	.	.	.
32AAA/	.	.	.
32AA/	.	.	.
32AAA/	(<12d/L	.	.
32AA/	.	.	.
32AAA/	.	.	.
.	12c#/	.	.
32AA/	.	.	.
32AAA/	.	.	.
32AA/	.	.	.
.	12B/J	.	.
32AAA/	.	.	.
32AA/JJJ)	.	.	.
*Xrep	*	*	*
=24	=24	=24	=24
*rep	*	*	*
(32AAA/LLL	4d#X/)	2F#\]	.
32AA/	.	.	.
32AAA/	.	.	.
32AA/	.	.	.
32AAA/	.	.	.
32AA/	.	.	.
32AAA/	.	.	.
32AA/	.	.	.
32AAA/	(<12d#/L	.	.
32AA/	.	.	.
32AAA/	.	.	.
.	12c#/	.	.
32AA/	.	.	.
32AAA/	.	.	.
32AA/	.	.	.
.	12B/J	.	.
32AAA/	.	.	.
32AA/JJJ)	.	.	.
(32AAA/LLL	4e/)	4G\)	.
32AA/	.	.	.
32AAA/	.	.	.
32AA/	.	.	.
32AAA/	.	.	.
32AA/	.	.	.
32AAA/	.	.	.
32AA/	.	.	.
32AAA/	4r	4ryy	.
32AA/	.	.	.
32AAA/	.	.	.
32AA/	.	.	.
32AAA/	.	.	.
32AA/	.	.	.
32AAA/	.	.	.
32AA/JJJ)	.	.	.
*Xrep	*	*	*
*	*v	*v	*
!!LO:LB:g=original
=25	=25	=25
(32AAA/LLL	4dn 4F#/	.
32AA/	.	.
32AAA/	.	.
32AA/	.	.
32AAA/	.	.
32AA/	.	.
32AAA/	.	.
32AA/	.	.
32AAA/	(12d/L	.
32AA/	.	.
32AAA/	.	.
.	12c#/	.
32AA/	.	.
32AAA/	.	.
32AA/	.	.
.	12B/J	.
32AAA/	.	.
32AA/JJJ)	.	.
*rep	*	*
(32AAA/LLL	4d#X/)	.
32AA/	.	.
32AAA/	.	.
32AA/	.	.
32AAA/	.	.
32AA/	.	.
32AAA/	.	.
32AA/	.	.
32AAA/	(12d#/L	.
32AA/	.	.
32AAA/	.	.
.	12c#/	.
32AA/	.	.
32AAA/	.	.
32AA/	.	.
.	12B/J	.
32AAA/	.	.
32AA/JJJ)	.	.
*Xrep	*	*
=26	=26	=26
*	*^	*
*rep	*	*	*
(32AAA/LLL	4e/)	(2G\	.
32AA/	.	.	.
32AAA/	.	.	.
32AA/	.	.	.
32AAA/	.	.	.
32AA/	.	.	.
32AAA/	.	.	.
32AA/	.	.	.
32AAA/	12e/L	.	.
32AA/	.	.	.
32AAA/	.	.	.
.	12dn/	.	.
32AA/	.	.	.
32AAA/	.	.	.
32AA/	.	.	.
.	12c#/J	.	.
32AAA/	.	.	.
32AA/JJJ)	.	.	.
(32AAA/LLL	4f#/	4A\)	.
32AA/	.	.	.
32AAA/	.	.	.
32AA/	.	.	.
32AAA/	.	.	.
32AA/	.	.	.
32AAA/	.	.	.
32AA/	.	.	.
32AAA/	4r	4ryy	.
32AA/	.	.	.
32AAA/	.	.	.
32AA/	.	.	.
32AAA/	.	.	.
32AA/	.	.	.
32AAA/	.	.	.
32AA/JJJ)	.	.	.
*Xrep	*	*	*
=27!|:	=27!|:	=27!|:	=27!|:
*>B	*>B	*>B	*>B
32AAA/LLL	4g/	[1A	.
32AA/	.	.	.
32AAA/	.	.	.
32AA/	.	.	.
32AAA/	.	.	.
32AA/	.	.	.
32AAA/	.	.	.
32AA/	.	.	.
32AAA/	(<12g/L	.	.
32AA/	.	.	.
32AAA/	.	.	.
.	12f#/	.	.
32AA/	.	.	.
32AAA/	.	.	.
32AA/	.	.	.
.	12e/J)	.	.
32AAA/	.	.	.
32AA/JJJ	.	.	.
*Xtremolo	*	*	*
8AA/L	[<2g/	.	.
8AA#X/	.	.	.
8BB/	.	.	.
8BB#X/J	.	.	.
=28	=28	=28	=28
[>2C#/	4g/]	1A]	.
.	(<12g/L	.	.
.	12f#/	.	.
.	12e/J)	.	.
8C#/L]	2g/	.	.
8BB#X/	.	.	.
8BBn/	.	.	.
8AA#X/J	.	.	.
=29:|!	=29:|!	=29:|!	=29:|!
*>C	*>C	*>C	*>C
*rep	*	*	*
[>2C#/	12b/L	4c#\	.
.	12a/	.	.
.	12g/J	.	.
.	12f#/L	4r	.
.	12e/	.	.
.	12d/J	.	.
8C#/L]	8c#/L	2ryy	.
8BB#X/	8d/	.	.
8BBn/	8d#X/	.	.
8AA#X/J	8f#/J	.	.
*Xrep	*	*	*
*	*v	*v	*
!!LO:LB:g=original
=30	=30	=30
*rep	*	*
[>2C#/	4e/	.
.	12g/L	.
.	12f#/	.
.	12e/J	.
8C#/L]	12d/L	.
.	12c#/	.
8BB#X/	.	.
.	12B/J	.
8BBn/	12A/L	.
.	12B/	.
8AA#X/J	.	.
.	12c#/J	.
*Xrep	*	*
=31	=31	=31
*^	*	*
!	!	!	!LO:DY:rj
4D 4DD/	[>1D	4d/	ff
4C# 4CC#/	.	(12d/L	.
.	.	12e/	.
.	.	12f#/J	.
4Cn 4CCn/	.	4A/)	.
4BB 4BBB/	.	(12B/L	.
.	.	12c#/	.
.	.	12d/J	.
=32	=32	=32	=32
*	*	*^	*
4BB-X 4BBB-X/	4.D/]	4G/)	4ryy	.
(8.AL 8.AA 8.AAA/	.	(12dd\L	2f#\	.
.	.	12ee\	.	.
.	8ryy	.	.	.
.	.	12ff#\J	.	.
16G#XJk 16GG#X 16GGG#X/	.	.	.	.
4AA 4AAA/	4rF	4a 4f#\)	.	.
4A 4AA\)	4ryy	12a#X/L	4g 4c#\	.
.	.	12b/	.	.
.	.	12cc#/J	.	.
*v	*v	*	*	*
*	*v	*v	*
=33	=33	=33
4D 4DD/	4dd 4f#\	.
4C# 4CC#/	12d/L	.
.	12e/	.
.	12f#/J	.
4Cn 4CCn/	4A/	.
4BB 4BBB/	12B/L	.
.	12c#/	.
.	12d/J	.
=34	=34	=34
*	*^	*
4BB-X 4BBB-X/	4G/	2.ryy	.
4AA 4AAA/	12dd\L	.	.
.	12ee\	.	.
.	12ff#\J	.	.
4r	4a/	.	.
4A 4AA\	12a#X/L	4g\	.
.	12b/	.	.
.	12cc#/J	.	.
*	*v	*v	*
!!LO:LB:g=original
=35	=35	=35
4D 4DD\	4dd 4f#\	.
4C# 4CC#\	(12d/L	.
.	12e/	.
.	12f#/J	.
4Cn 4CCn\	4A/)	.
4C#X 4CC#X\	(12d/L	.
.	12e/	.
.	12f#/J	.
=36	=36	=36
4D 4DD\	4A#X/)	.
4C# 4CC#\	(12d/L	.
.	12e/	.
.	12f#/J	.
4Cn 4CCn\	4An/)	.
4C#X 4CC#X/	4f# 4e 4A#X/	.
=37	=37	=37
4BB 4BBB/	4f# 4d 4B/	.
4E 4EE/	4g 4d 4B/	.
4r	4r	.
4A 4AA\	4e 4d 4B/	.
=38	=38	=38
4F# 4FF#/	4a 4d 4A/	.
4r	4r	.
4E 4AA\	4c# 4A 4G/	.
4r	4r	.
!!LO:PB:g=original
=39	=39	=39
*tremolo	*	*
(32DD/LLL	4d 4A 4F#/	.
32D/	.	.
32DD/	.	.
32D/	.	.
32DD/	.	.
32D/	.	.
32DD/	.	.
32D/	.	.
32DD/	(12f#/L	.
32D/	.	.
32DD/	.	.
.	12e/	.
32D/	.	.
32DD/	.	.
32D/	.	.
.	12d/J	.
32DD/	.	.
32D/JJJ)	.	.
*rep	*	*
(32DD/LLL	4a/)	.
32D/	.	.
32DD/	.	.
32D/	.	.
32DD/	.	.
32D/	.	.
32DD/	.	.
32D/	.	.
32DD/	(12f#/L	.
32D/	.	.
32DD/	.	.
.	12e/	.
32D/	.	.
32DD/	.	.
32D/	.	.
.	12d/J	.
32DD/	.	.
32D/JJJ)	.	.
*Xrep	*	*
=40	=40	=40
*rep	*	*
(32DD/LLL	4A/)	.
32D/	.	.
32DD/	.	.
32D/	.	.
32DD/	.	.
32D/	.	.
32DD/	.	.
32D/	.	.
32DD/	(12ff#\L	.
32D/	.	.
32DD/	.	.
.	12ee\	.
32D/	.	.
32DD/	.	.
32D/	.	.
.	12dd\J	.
32DD/	.	.
32D/JJJ)	.	.
(32DD/LLL	4aa\)	.
32D/	.	.
32DD/	.	.
32D/	.	.
32DD/	.	.
32D/	.	.
32DD/	.	.
32D/	.	.
32DD/	(12ff#\L	.
32D/	.	.
32DD/	.	.
.	12ee\	.
32D/	.	.
32DD/	.	.
32D/	.	.
.	12dd\J	.
32DD/	.	.
32D/JJJ)	.	.
*Xrep	*	*
*Xtremolo	*	*
=41	=41	=41
4D 4DD/	4ddd 4aa 4ff# 4dd\)	.
4r	4r	.
4D 4DD\	4fff# 4ddd 4aa 4ff#\	.
4r	4r	.
=42	=42	=42
4D 4DD/	4ddd 4ff# 4dd\	.
4r	4r	.
2r	2r	.
!!LO:LB:g=original
=43||	=43||	=43||
!!!OMD: Allegretto
!!!key: G
*k[f#]	*k[f#]	*
*M6/8	*M6/8	*
!	!LO:TX:a:i:t=La Pêche	!
8GG\L	4.dd 4.b 4.g 4.d\	p
8B 8F#\	.	.
8D\J	.	.
8c 8G 8E\	4cc 4g 4e 4c\	.
4C/	.	.
.	8ee 8cc 8g 8e\	.
=44	=44	=44
8GG\L	[4.gg 4.dd 4.b [4.g\	.
8B 8G\	.	.
8D\J	.	.
4.B 4.G\	8gg]L 8dd 8b 8g\]	.
.	8dd 8d\	.
.	16r	.
.	16ddJk 16d\	.
=45	=45	=45
8GG\L	[4.dd [4.b [4.a [4.d\	.
8c 8F#\	.	.
8D\J	.	.
8c 8F#\	16dd]LL 16b] 16a] 16d\]	.
.	16dd 16d\	.
4D\	16ee 16e\	.
.	16ff# 16f#\	.
.	16gg 16g\	.
.	16aaJJ 16a\	.
=46	=46	=46
8GG\L	(8bbL 8b\	.
8B 8G\	8fff# 8ff#\	.
8D\J	8eeeJ 8ee\)	.
4.c 4.F#\	(8dddL 8dd\	.
.	8cccJ 8cc\)	.
.	16r	.
.	16dd 16d\	.
!!LO:LB:g=original
=47	=47	=47
8GG\L	(4.dd 4.b 4.g 4.d\	.
8B 8G\	.	.
8D\J	.	.
8c 8G 8E\	8ccL 8g 8e 8c\	.
4C/	8ee 8cc 8g 8e\	.
.	8ggJ 8ee 8cc 8g\)	.
=48	=48	=48
!	!LO:TX:t=P:stem.color=dodgerblue:problem	!
8GG\L	(8aaL 8dd 8b 8a\	.
8B 8G\	8gg 8g\	.
8D\J	8ddJ 8d\)	.
!	!LO:TX:t=P:stem.color=dodgerblue:problem	!
4.B 4.G\	4.dd 4.b 4.g 4.d\	.
=49	=49	=49
8GG\L	(4.ee 4.cc§ 4.f# [4.d§\	.
8c 8F#\	.	.
8D\J	.	.
8c 8F#\	16ddLL) 16cc 16f# 16d\]	.
.	16ee 16e\	.
4D\	16ff# 16f#\	.
.	16gg 16g\	.
.	16aa 16a\	.
.	16bbJJ 16b\	.
=50	=50	=50
8GG\L	[4.gg [4.g\	.
8B 8G\	.	.
8D\J	.	.
8G\L	8gg]L 8g\]	.
8G 8GG\	8bb 8ff# 8dd 8b\	.
8F#J 8FF#\	8bbJ 8aa 8dd#X 8b\	.
!!LO:LB:g=original
=51	=51	=51
!	!	!LO:DY:rj
(8.EL 8.EE\	[4.b [4.g\	f
16BK 16BB\	.	.
8GJ 8GG\	.	.
8EL 8EE\)	8b]L 8g\]	.
!LO:TX:t=P:dot.color=dodgerblue:problem	!	!
8.c 8.C'\	(16aL 16f#\	.
.	16b 16g\	.
.	16cc 16a\	.
!LO:TX:t=P:stem.color=dodgerblue:problem	!	!
16AJk 16AA'\	16eeJJ 16cc\)	.
=52	=52	=52
*rep	*	*
(8.EL 8.EE\	[4.b [4.g\	.
16BK 16BB\	.	<
8GJ 8GG\	.	.
8EL 8EE\)	(8b]L 8g\]	.
!LO:TX:t=P:dot.color=dodgerblue:problem	!	!
8.c 8.C'\	16aL 16f#\	.
.	16b 16g\	.
!	!LO:TUP:a:problem=klamra łukowa	!
.	24cc 24a\	.
.	24ff# 24a\	.
!LO:TX:t=P:stem.color=dodgerblue:problem	!	!
16AJk 16AA'\	.	.
.	24eeJJ 24cc\)	[[
*Xrep	*	*
=53	=53	=53
*^	*	*
!LO:N:xstem	!	!	!
8B/@	4G@ 4E 4EE\	8bL 8g 8e@\	<
!LO:N:xstem	!	!	!
8B/@	.	8gg 8b 8g\	.
!LO:N:xstem	!	!	!
8B/@	8F# 8FF#\	8ff#J 8b 8a 8f#@\	.
!LO:N:xstem	!	!	!
8B/@	4G 4GG\	8eeL 8b 8g 8e@/	.
!LO:N:xstem	!	!	!
8B/@	.	8dd#X 8d#X@/	.
!LO:N:xstem	!	!	!
8B/@	8G#X 8GG#X\	8ddnJ 8b 8fn 8dn@/	[
*v	*v	*	*
=54	=54	=54
8dL@ 8A 8AA\	8ccL 8a 8e\	.
8B 8BB\	8b 8g 8e\	.
8cJ 8C\	8aJ 8g 8e\	>
4B 4BB\	8gL 8e\	.
.	8f# 8c#X\	.
8BB 8BBB/	8bJ 8B\	]]
!!LO:LB:g=original
=55	=55	=55
(8.EL 8.EE\	[4.b 4.g [4.e\	f
16BK 16BB\	.	.
8GJ 8GG\	.	.
8EL 8EE\)	8b]L 8g 8e\]	.
8.c 8.C'\	(16aL 16f#\	.
.	16b 16g\	.
.	16cc 16a\	.
16AJk 16AA'\	16eeJJ 16cc\)	.
=56	=56	=56
*rep	*	*
(8.EL 8.EE\	[4.b [<4.g [4.e\	<
16BK 16BB\	.	.
8GJ 8GG\	.	.
8EL 8EE\)	(8b]L 8g] 8e\]	.
8.c 8.C'\	16aL 16f#\	.
.	16b 16g\	.
!	!LO:TUP:a:problem=klamra łukowa	!
.	24cc 24a\	.
.	24gg 24cc 24a\	.
16AJk 16AA'\	.	.
.	24ff#JJ 24cc\)	[
*Xrep	*	*
=57	=57	=57
4B@ 4G@ 4E 4EE\	8bL 8g\	.
.	8gg 8b 8g\	.
!	!	!LO:HP:t=cresc
8F# 8FF#\	8ff#J 8b 8a\	<
8GL 8GG\	8eeL 8b 8g 8e@\	.
8G#X 8GG#X\	8dd 8b 8fn 8d@\	.
8AJ 8AA\	8ccJ 8a 8e 8c@\	.
=58	=58	=58
8BL 8BB\	8bL 8g 8e/	.
8C\	8a 8e 8c/	.
8C#X\J	8gJ 8e 8B/	.
8D\L	8f#L 8d 8A/	.
8E\	8e 8c 8G/	.
8F#\J	8dJ 8c 8A/	.
!!LO:LB:g=original
=59	=59	=59
.	8qB/	.
!	!	!LO:DY:rj
8GG\L	(4.dd 4.d\	f
8B 8G\	.	.
8D\J	.	.
8c 8G 8E\	4cc 4c\	.
4C/	.	.
.	8ee 8e\	.
=60	=60	=60
8GG\L	[4.gg [4.g\	.
8B 8G\	.	.
8D\J	.	.
4.B 4.G\	8gg]L 8g\])	.
.	8dd 8d\	.
.	16r	.
.	16ddJk 16d\	.
=61	=61	=61
8GG\L	[4.dd [4.d\	.
8c 8F#\	.	.
8D\J	.	.
8c 8F#\	16dd]LL 16d\]	.
.	16dd 16d'\	.
4D\	16ee 16e'\	.
.	16ff# 16f#'\	.
.	16gg 16g'\	.
.	16aaJJ 16a'\	.
=62	=62	=62
*^	*	*
8GG\L	4GG/	(8bbL 8b\	.
8B 8G 8GG\	.	8fff# 8ff#\	.
8D\J	2ryy	8eeeJ 8ee\	.
4.c 4.F#\	.	8dddL 8dd\	.
.	.	8aa 8a\)	.
.	.	16r	.
.	.	16ddJk 16d\	.
*v	*v	*	*
!!LO:LB:g=original
=63	=63	=63
.	8qA/	.
8BL 8G 8GG\	(4.dd 4.d\	.
8F# 8FF#\	.	.
8FnJ 8FFn\	.	<
8c 8G 8E 8EE\	8ccL 8c\	.
4e 4G 4C 4CC/	8ee 8e\	.
.	8ggJ 8g\)	.
=64	=64	=64
[4.BB [4.BBB\	(8aaL 8a\	.
.	8gg 8g\)	.
.	16r	.
.	16ddJk 16d\	.
8BB]L 8BBB/]	4.dd 4.d\	.
8AA#X 8AAA#X/	.	[
8BBJ 8BBB/	.	.
=65	=65	=65
4AAn 4AAAn/	[4.dd [<4.cc [4.f# [4.d\	.
!	!LO:TX:b:i:t=ac-cel-le-ran-do:dur=22e:ext=cd:problem=text with extention lines	!
8GG#X 8GGG#X/	.	.
[4.AA [4.AAA/	16dd]LL 16cc] 16f#] 16d\]	.
.	16aa 16a\	.
.	16gg 16g\	.
.	16ff# 16f#\	.
.	16ee 16e\	.
.	16ddJJ 16d\	.
=66	=66	=66
4AA] 4AAA/]	[4.dd [<4.cc [4.f# [4.d\	.
8GG#X 8GGG#X/	.	.
[4.AA [4.AAA/	16dd]LL 16cc] 16f#] 16d\]	.
.	16ccc 16cc\	.
.	16bb 16b\	.
.	16aa 16a\	.
.	16gg 16g\	.
.	16ff#JJ 16f#\	.
!!LO:LB:g=original
=67	=67	=67
4AA] 4AAA/]	16ddLL 16cc 16f# 16d\	.
.	16aa 16a\	.
.	16gg 16g\	.
.	16ff# 16f#\	.
8GG#X 8GGG#X/	16ee 16e\	.
.	16ddJJ 16d\	.
4AA 4AAA/	16ddLL 16cc 16f# 16d\	.
.	16ccc 16a\	.
.	16bb 16b\	.
.	16aa 16a\	.
8GG# 8GGG#/	16gg 16g\	.
.	16ff#JJ 16f#\	.
=68	=68	=68
4AA 4AAA/	16ddLL 16cc 16f# 16d\	.
.	16ccc 16cc\	.
.	16bb 16b\	.
.	16aa 16a\	.
8GG#X 8GGG#X/	16gg 16g\	.
.	16ff#JJ 16f#\	.
*rep	*	*
4AA 4AAA/	16ff#LL 16dd 16cc 16f#\	.
.	16eee 16ee\	.
.	16ddd 16dd\	.
.	16ccc 16cc\	.
8GG# 8GGG#/	16bb 16b\	.
.	16aaJJ 16a\	.
*Xrep	*	*
=69	=69	=69
*	*tremolo	*
8AAL 8AAA/	16dddLL 16ccc 16aa 16ff#\	.
.	16dd\	<
8GG#X 8GGG#X/	16ddd 16ccc 16aa 16ff#\	.
.	16dd\	.
8AAJ 8AAA/	16ddd 16ccc 16aa 16ff#\	.
.	16dd\	.
8GG#L 8GGG#/	16ddd 16ccc 16aa 16ff#\	.
.	16dd\	.
8AA 8AAA/	16ddd 16ccc 16aa 16ff#\	.
.	16dd\	.
8GG#J 8GGG#/	16ddd 16ccc 16aa 16ff#\	.
.	16dd\JJ	.
=70	=70	=70
8AAL 8AAA/	16ddd 16cccLL 16ff#\	.
.	16dd\	.
8GG#X 8GGG#X/	16ddd 16ccc 16ff#\	.
.	16dd\	.
8AAJ 8AAA/	16ddd 16ccc 16ff#\	.
.	16dd\JJ	.
*	*Xtremolo	*
8GG#L 8GGG#/	8cccL 8ff# 8dd\	.
8GGn 8GGGn/	8ddd 8bb 8gg 8dd\	.
8FF#J 8FFF#/	8dddJ 8bb 8gg\	[[
!!LO:PB:g=original
=71	=71	=71
[2.FFn [2.FFFn/	[2.ggg [<2.ddd [2.bb [2.gg\	ff
=72	=72	=72
4.FF_ 4.FFF/_	4.ggg_ 4.ddd_< 4.bb_ 4.gg\_	.
8FF] 8FFF/]	8ggg] 8ddd] 8bb] 8gg\]	.
8.r	8.r	p
16FFny 16FFFny/	16ggg 16ddd 16bb 16gg 16ee 16dd 16b 16g 16d 16B 16G\	.
=73	=73	=73
!	!LO:TX:a:i:t=L'apportition da la Riene.	!
4.FF#X 4.FFF#X/	4.fff# 4.ddd 4.bb 4.ff#\	.
!LO:T:color=dodgerblue	!	!LO:HP:t=dim
[4.GG [4.GGG/	[4.fffn [<4.ddd [4.bb [4.ffn\	>
=74	=74	=74
4.GG] 4.GGG/]	4.fff] 4.ddd] 4.bb] 4.ff\]	.
[4.GG#X [4.GGG#X/	[4.eee [<4.ddd [4.bb [4.ee\	.
=75	=75	=75
4.GG#] 4.GGG#\]	4.eee] 4.ddd] 4.bb] 4.ee\]	.
!	!LO:TX:b:i:t=ritenuto	!
4.AA 4.AAA\	4.eee 4.ccc 4.aa 4.ee\	.
4r	4r	.
8r	8r	.
=76	=76	=76
4.AA#X 4.AAA#X\	4.eee 4.ccc 4.gg 4.ee\	.
4r	4r	.
8r	8r	.
=77	=77	=77
4.BB 4.BBB\	4.eee 4.ccc 4.gg 4.ee\	.
4r	4r	.
8r	8r	.
=78	=78	=78
[4.C [4.CC\	8eeeL 8aa#X 8gg 8ee\	.
.	8aa#J 8a#X\	f
.	8r	.
8CnX] 8CCnX\]	8r	.
8r	8r	.
8BB 8BBB\	8bb 8b\	.
!!LO:LB:g=original
=79||	=79||	=79||
!!!key: E
!!!OMD: Andante cantabile
*k[f#c#g#d#]	*k[f#c#g#d#]	*
*^	*	*
8r	8E 8EE\	([4.ggg# 4.eee [4.gg#\	.
8g#L 8e 8B 8G#/	8rEE	.	.
8g#J 8e 8B 8G#/	8rEE	.	.
4.g# 4.e 4.B 4.G#\	4rEE	8ggg#]L 8gg#\]	.
.	.	8fff# 8ff#\	.
.	8rEE	8eeeJ 8ee\	.
=80	=80	=80	=80
*	*rep	*	*
8r	8E 8EE\	(8ddd# (8dd#\	.
*	*Xrep	*	*
8aL 8f# 8c# 8A\	8rEE	[4ccc#) [4cc#\)	.
8aJ 8f# 8c# 8A\	8rEE	.	.
4.a 4.f# 4.c# 4.A\	4rEE	4ccc#] 4cc#\])	.
.	8rEE	8ccc# 8cc#\	.
=81	=81	=81	=81
*	*rep	*	*
8r	8E 8EE\	([4.fff# [4.ff#\	.
*	*Xrep	*	*
8f#L 8d# 8B 8A\	8rEE	.	.
8f#J 8d# 8B 8A\	8rEE	.	.
4.f# 4.d# 4.B 4.A\	4rEE	8fff#]L 8ff#\]	.
.	.	8eee 8ee\	.
.	8rEE	8ddd#J 8dd#\	.
=82	=82	=82	=82
*	*rep	*	*
8r	8E 8EE\	8ccc# 8cc#\	.
*	*Xrep	*	*
8g#L 8e 8B 8G#/	8rEE	[4bb [4b\	.
8g#J 8e 8B 8G#/	8rEE	.	.
4.g# 4.e 4.B 4.G#/	4rEE	4bb] 4b\])	.
.	8rEE	8bb 8b\	.
=83	=83	=83	=83
8r	8C# 8CC#/	[4.eee [4.ee\	.
8g#L 8e 8c# 8G#/	8rEE	.	.
8g#J 8e 8c# 8G#/	8rEE	.	.
4.g# 4.e 4.c# 4.G#/	8C#\L	8eee]L 8ee\]	.
.	8D#\	8ddd# 8dd#\	.
.	8E\J	8ccc#J 8cc#\	.
!!LO:LB:g=original
=84	=84	=84	=84
8r	8F# 8FF#\	8bbL 8b\	.
8f#L 8c# 8A/	8r	8aa#X 8a#X\	.
8f#J 8c# 8A/	8r	8aanJ 8an\	.
4.f# 4.c# 4.A/	4r	4aa 4a\	.
.	8r	8gg# 8g#\	.
=85	=85	=85	=85
8r	8BB 8BBB/	4gg# 4g#\	.
8f#L 8d# 8B 8A/	8rEE	.	.
8f#J 8d# 8B 8A/	8rEE	8ff# 8f#\	.
4.f# 4.d# 4.B 4.A\	4rEE	8ff#L 8f#\	.
.	.	8ff# 8f#\	.
.	8rEE	8ff##XJ 8f##X\	.
=86	=86	=86	=86
8r	8E 8EE\	[4.gg# [4.g#\	.
8g#L 8e 8B 8G#/	8rEE	.	.
8g#J 8e 8B 8G#/	8rEE	.	.
4.g# 4.e 4.B 4.G#\	4rEE	4gg#] 4g#\]	.
.	8rEE	8bb 8b\	.
=87	=87	=87	=87
8r	8E 8EE\	[4.ggg# [4.gg#\	.
8g#L 8e 8B 8G#/	8rEE	.	.
8g#J 8e 8B 8G#/	8rEE	.	.
4.g# 4.e 4.B 4.G#/	4rEE	8ggg#]L 8gg#\]	.
.	.	8fff# 8ff#\	.
.	8rEE	8eeeJ 8ee\	.
=88	=88	=88	=88
8r	8E 8EE\	(8ddd#L 8dd#\	.
8aL 8f# 8c# 8A/	8rEE	8ccc# 8cc#\)	.
8aJ 8f# 8c# 8A/	8rEE	(8eee#XJ 8ee#X\	.
4.a 4.f# 4.c# 4.A/	4rEE	8fff#L 8ff#\	.
.	.	8ggg# 8gg#\	.
.	8rEE	8aaaJ 8aa\)	.
!!LO:LB:g=original
=89	=89	=89	=89
8r	8E 8EE\	[4.fff# [4.ff#\	.
8f#L 8d# 8B 8A/	8rEE	.	.
8f#J 8d# 8B 8A/	8rEE	.	.
4.f# 4.d# 4.B 4.A/	4rEE	8fff#]L 8ff#\]	.
.	.	(8eee 8ee\	.
.	8rEE	8ddd#J 8dd#\	.
=90	=90	=90	=90
8r	8E 8EE\	8ccc#L 8cc#\	.
8g#L 8e 8B 8G#/	8rEE	8bb 8b\)	.
8g#J 8e 8B 8G#/	8rEE	(8ddd#J 8dd#\	.
4.g# 4.e 4.B 4.G#\	4rEE	8eeeL 8ee\	.
.	.	8fff# 8ff#\	.
.	8rEE	8ggg#J 8gg#\)	.
=91	=91	=91	=91
8r	8C# 8CC#/	[4.eee [4.ee\	.
8g#L 8e 8c# 8G#/	8rEE	.	.
8g#J 8e 8c# 8G#/	8rEE	.	.
4.g# 4.e 4.c# 4.G#/	8C#\L	8eee]L 8ee\]	.
.	8D#\	8ddd# 8dd#\	.
.	8E\J	8ccc#J 8cc#\	.
=92	=92	=92	=92
8r	8F# 8FF#\	8bbL 8b\	.
8f#L 8c# 8A\	8rEE	8aa#X 8a#X\	.
8f#J 8c# 8A\	8rEE	8aanJ 8an\	.
4.f# 4.c# 4.A\	4rEE	4aa 4a\	.
.	8rEE	8gg# 8g#\	.
!!LO:LB:g=original
=93	=93	=93	=93
8r	8BB 8BBB/	[4.gg# [4.g#\	.
8d#L 8B 8A/	8rEE	.	.
8d#J 8B 8A/	8rEE	.	.
4d# 4B 4A/	4.r@;	4gg#] 4g#\]	.
8d# 8B 8A/	.	8ff# 8f#;\	.
*v	*v	*	*
=94	=94	=94
8eL 8B 8G# 8E\	8eeL 8e\	.
8G#\	8e 8B\	.
8A\J	8eJ 8c#\	.
8c#\L	8aL 8e/	.
8B\	8g# 8e/	.
8G#\J	8bJ 8e 8B/	.
=95||	=95||	=95||
!!!OMD: Allegro Tempo 1°
*M2/2	*M2/2	*
*met(c|)	*met(c|)	*
!	!LO:TX:a:t=F 	!
4E 4EE\	4ee 4e\	.
!	!LO:TX:t=P:problem=brak oznaczenia trioli;global	!
4D# 4DD#\	(12e/L	.
.	12f#/	.
.	12g#/J	.
4Dn 4DDn\	4B/)	.
4C# 4CC#\	(12c#/L	.
.	12d#/	.
.	12e/J	.
=96	=96	=96
*	*^	*
4Cn 4CCn/	4A/)	2.ryy	.
8BBL 8BBB/	(12ee\L	.	.
.	12ff#\	.	.
8AA#XJ 8AAA#X/	.	.	.
.	12gg#\J	.	.
4BB 4BBB/	4b\)	.	.
4B 4BB\	12b#X/L	4a\	.
.	12cc#/	.	.
.	12dd#/J	.	.
*	*v	*v	*
=97	=97	=97
4E 4EE\	4ee 4e\	.
*rep	*rep	*
!	!LO:TX:t=P:problem=dwutaktowa repetycja	!
4D# 4DD#\	(12e/L	.
.	12f#/	.
.	12g#/J	.
4Dn 4DDn\	4B/)	.
4C# 4CC#\	(12c#/L	.
.	12d#/	.
.	12e/J	.
=98	=98	=98
*	*^	*
4Cn 4CCn/	4A/)	2.ryy	.
8BBL 8BBB/	(12ee\L	.	.
.	12ff#\	.	.
8AA#XJ 8AAA#X/	.	.	.
.	12gg#\J	.	.
4BB 4BBB/	4b\)	.	.
4B 4BB\	12b#X/L	4a\	.
.	12cc#/	.	.
.	12dd#/J	.	.
*Xrep	*Xrep	*Xrep	*
*	*v	*v	*
!!LO:LB:g=original
=99	=99	=99
4E 4EE\	4ee 4g#\	.
4D# 4DD#\	(12e/L	.
.	12f#/	.
.	12g#/J	.
4Dn 4DDn\	4B/)	.
4D#X 4DD#X\	(12e/L	.
.	12f#/	.
.	12g#/J	.
=100	=100	=100
4E 4EE\	4B#X/)	.
4D# 4DD#\	12e/L	.
.	12f#/	.
.	12g#/J	.
4Dn 4DDn\	4Bn/	.
4D#X 4DD#X\	4g# 4f# 4B#X/	.
=101	=101	=101
4C# 4CC#/	4g# 4e 4c#/	.
4F# 4FF#/	4a 4e 4c#/	.
4r	4r	.
4A 4AA\	4f# 4e 4c#/	.
!!LO:LB:g=original
=102	=102	=102
4G# 4GG#\	4b 4e 4B/	.
4r	4r	.
4BB/	4d# 4B 4A/	.
4r	4r	.
=103	=103	=103
*tremolo	*	*
32EE\LLL	4e 4B 4G#/	.
32E\	.	.
32EE\	.	.
32E\	.	.
32EE\	.	.
32E\	.	.
32EE\	.	.
32E\	.	.
32EE\	(12g#/L	.
32E\	.	.
32EE\	.	.
.	12f#/	.
32E\	.	.
32EE\	.	.
32E\	.	.
.	12e/J	.
32EE\	.	.
32E\JJJ	.	.
*rep	*	*
32EE\LLL	4b/)	.
32E\	.	.
32EE\	.	.
32E\	.	.
32EE\	.	.
32E\	.	.
32EE\	.	.
32E\	.	.
32EE\	(12g#/L	.
32E\	.	.
32EE\	.	.
.	12f#/	.
32E\	.	.
32EE\	.	.
32E\	.	.
.	12e/J	.
32EE\	.	.
32E\JJJ	.	.
*Xrep	*	*
=104	=104	=104
*rep	*	*
32EE\LLL	4B/)	.
32E\	.	.
32EE\	.	.
32E\	.	.
32EE\	.	.
32E\	.	.
32EE\	.	.
32E\	.	.
32EE\	(12gg#\L	.
32E\	.	.
32EE\	.	.
.	12ff#\	.
32E\	.	.
32EE\	.	.
32E\	.	.
.	12ee\J	.
32EE\	.	.
32E\JJJ	.	.
32EE\LLL	4bb\)	.
32E\	.	.
32EE\	.	.
32E\	.	.
32EE\	.	.
32E\	.	.
32EE\	.	.
32E\	.	.
32EE\	(12gg#\L	.
32E\	.	.
32EE\	.	.
.	12ff#\	.
32E\	.	.
32EE\	.	.
32E\	.	.
.	12ee\J)	.
32EE\	.	.
32E\JJJ	.	.
*Xrep	*	*
*Xtremolo	*	*
=105	=105	=105
4E 4EE\	4eee 4aa 4gg# 4ee\	.
4r	4r	.
4E 4EE/	4ggg# 4bb 4gg#\	.
4r	4r	.
=106	=106	=106
4E 4EE/	4ee 4e\	.
4r	4r	.
2r	2r	.
==	==	==
*-	*-	*-
!!!system-decoration: {(*)}
!!!RDF**kern: > = above
!!!RDF**kern: < = below
!!!RDF**kern: @ = marked note, color=grey
!!!RDF**kern: § = marked note, color=dodgerblue
!!!ENC: Anastazja Marusiak
!!!END: 2021-11-06
!!!AIN: 1 piano
!!!ENC: Andrzej Kubiczek
!!!END: 2022-03-15
